dist/images/graphics/icons/money.svg

<svg width="28" height="16" viewBox="0 0 28 16" fill="none" xmlns="http://www.w3.org/2000/svg">
<path d="M25.375 0.125H2.625C2.16087 0.125 1.71575 0.309374 1.38756 0.637563C1.05937 0.965752 0.875 1.41087 0.875 1.875V14.125C0.875 14.5891 1.05937 15.0342 1.38756 15.3624C1.71575 15.6906 2.16087 15.875 2.625 15.875H25.375C25.8391 15.875 26.2842 15.6906 26.6124 15.3624C26.9406 15.0342 27.125 14.5891 27.125 14.125V1.875C27.125 1.41087 26.9406 0.965752 26.6124 0.637563C26.2842 0.309374 25.8391 0.125 25.375 0.125ZM9.07812 14.125L2.625 8.48125V7.51875L9.07812 1.875H18.9219L25.375 7.51875V8.48125L18.9219 14.125H9.07812ZM25.375 5.2L21.5797 1.875H25.375V5.2ZM6.42031 1.875L2.625 5.2V1.875H6.42031ZM2.625 10.8L6.42031 14.125H2.625V10.8ZM25.375 14.125H21.5797L25.375 10.8V14.125ZM14 3.625C13.1347 3.625 12.2888 3.88159 11.5694 4.36232C10.8499 4.84305 10.2892 5.52633 9.95803 6.32576C9.62689 7.12519 9.54025 8.00485 9.70906 8.85352C9.87787 9.70219 10.2946 10.4817 10.9064 11.0936C11.5183 11.7054 12.2978 12.1221 13.1465 12.2909C13.9951 12.4597 14.8748 12.3731 15.6742 12.042C16.4737 11.7108 17.1569 11.1501 17.6377 10.4306C18.1184 9.71115 18.375 8.86529 18.375 8C18.375 6.83968 17.9141 5.72688 17.0936 4.90641C16.2731 4.08594 15.1603 3.625 14 3.625ZM14 10.625C13.4808 10.625 12.9733 10.471 12.5416 10.1826C12.1099 9.89417 11.7735 9.4842 11.5748 9.00454C11.3761 8.52489 11.3242 7.99709 11.4254 7.48789C11.5267 6.97869 11.7767 6.51096 12.1438 6.14384C12.511 5.77673 12.9787 5.52672 13.4879 5.42544C13.9971 5.32415 14.5249 5.37614 15.0045 5.57482C15.4842 5.7735 15.8942 6.10995 16.1826 6.54163C16.471 6.97331 16.625 7.48082 16.625 8C16.6221 8.69531 16.3446 9.36131 15.853 9.85297C15.3613 10.3446 14.6953 10.6221 14 10.625Z" fill="#FFB636"/>
</svg>

<svg width="28" height="16" fill="none" xmlns="http://www.w3.org/2000/svg"><path d="M25.375.125H2.625a1.75 1.75 0 00-1.75 1.75v12.25a1.75 1.75 0 001.75 1.75h22.75a1.75 1.75 0 001.75-1.75V1.875a1.75 1.75 0 00-1.75-1.75zm-16.297 14L2.625 8.481V7.52l6.453-5.644h9.844l6.453 5.644v.962l-6.453 5.644H9.078zM25.375 5.2L21.58 1.875h3.795V5.2zM6.42 1.875L2.625 5.2V1.875H6.42zM2.625 10.8l3.795 3.325H2.625V10.8zm22.75 3.325H21.58l3.795-3.325v3.325zM14 3.625a4.375 4.375 0 100 8.75 4.375 4.375 0 000-8.75zm0 7A2.625 2.625 0 1116.625 8 2.636 2.636 0 0114 10.625z" fill="#FFB636"/></svg>
